img/soc_linkedin.svg

<?xml version="1.0" encoding="utf-8"?>
<!-- Generator: Adobe Illustrator 16.0.4, SVG Export Plug-In . SVG Version: 6.00 Build 0)  -->
<!DOCTYPE svg PUBLIC "-//W3C//DTD SVG 1.1//EN" "http://www.w3.org/Graphics/SVG/1.1/DTD/svg11.dtd">
<svg version="1.1" xmlns="http://www.w3.org/2000/svg" xmlns:xlink="http://www.w3.org/1999/xlink" x="0px" y="0px" width="48px"
	 height="102px" viewBox="0 0 48 102" style="enable-background:new 0 0 48 102;" xml:space="preserve">
<style type="text/css">
<![CDATA[
	.st0{fill-rule:evenodd;clip-rule:evenodd;fill:#71117E;}
	.st1{fill:#12A8A5;}
	.st2{fill:#E29A4C;}
	.st3{fill:#E3A730;}
	.st4{fill:#E3F2BF;}
	.st5{fill:#E4F0D7;}
	.st6{fill:#E55F7C;}
	.st7{opacity:0.5;fill:#55ACEE;}
	.st8{fill:#E6E6E6;}
	.st9{fill:#198583;}
	.st10{fill-rule:evenodd;clip-rule:evenodd;fill:none;}
	.st11{fill:#E8C95A;}
	.st12{opacity:0.5;fill:#BC112A;}
	.st13{opacity:0.15;}
	.st14{opacity:0.25;}
	.st15{opacity:0.35;}
	.st16{opacity:0.5;fill:none;stroke:#F3695A;stroke-miterlimit:10;}
	.st17{opacity:0.5;fill:#F3695A;}
	.st18{fill:#EAAF56;}
	.st19{fill:#EB9A2D;}
	.st20{fill:#EBB060;}
	.st21{fill:#EDA44C;}
	.st22{fill:#534E58;}
	.st23{fill:#55ACEE;}
	.st24{opacity:0.2;fill:#EDA44C;stroke:#362B3C;stroke-miterlimit:10;}
	.st25{fill:#575757;}
	.st26{fill:#8B9698;}
	.st27{fill:#58504E;}
	.st28{fill:#8C652F;}
	.st29{fill:#BC112A;}
	.st30{fill:#BD081C;}
	.st31{fill:#8E8A75;}
	.st32{fill:#BEBEBF;}
	.st33{fill:#BF1B3A;}
	.st34{fill:#F19D39;}
	.st35{fill:#238D83;}
	.st36{fill:#F2C549;}
	.st37{fill:#F3695A;}
	.st38{fill:#299488;}
	.st39{fill:#F9B4AC;}
	.st40{fill-rule:evenodd;clip-rule:evenodd;fill:#EDA44C;}
	.st41{opacity:0.5;fill:#9D47B2;}
	.st42{fill:#C1DA84;}
	.st43{fill:#C2BAC4;}
	.st44{opacity:0.5;fill:#32B779;}
	.st45{fill:#2B8F83;}
	.st46{fill:#FBAB01;}
	.st47{fill:#999999;}
	.st48{fill:#FCC457;}
	.st49{fill:none;stroke:#EB9A2D;stroke-width:2;stroke-linecap:round;stroke-linejoin:round;stroke-miterlimit:10;}
	.st50{opacity:0.2;fill:#9D47B2;}
	.st51{fill-rule:evenodd;clip-rule:evenodd;}
	.st52{opacity:0.2;}
	.st53{opacity:0.3;}
	.st54{opacity:0.4;}
	.st55{opacity:0.5;}
	.st56{opacity:0.6;}
	.st57{fill:#615957;}
	.st58{fill:none;stroke:#3E5054;stroke-width:1.2;stroke-miterlimit:10;}
	.st59{fill:#FFDD8B;}
	.st60{fill:#FFFFFF;}
	.st61{fill:none;}
	.st62{fill:none;stroke:#3E5054;stroke-width:1.2;stroke-linecap:round;stroke-linejoin:round;stroke-miterlimit:10;}
	.st63{fill:#9D47B2;}
	.st64{fill:#CCCCCC;}
	.st65{opacity:0.5;fill:#0873B2;}
	.st66{fill:#FFFFFF;stroke:#3E5053;stroke-width:1.4;stroke-miterlimit:10;}
	.st67{fill:#32B779;}
	.st68{fill:#333333;}
	.st69{fill:#362B3C;}
	.st70{opacity:0.6;fill:#EDA44C;}
	.st71{fill-rule:evenodd;clip-rule:evenodd;fill:#FF1550;}
	.st72{fill-rule:evenodd;clip-rule:evenodd;fill:#FFFFFF;}
	.st73{fill-rule:evenodd;clip-rule:evenodd;fill:#643C6B;}
	.st74{fill:#0873B2;}
	.st75{fill-rule:evenodd;clip-rule:evenodd;fill:#9D47B2;}
	.st76{fill:#3E5054;}
	.st77{fill:none;stroke:#EB9A2D;stroke-width:1.6;stroke-miterlimit:10;}
	.st78{fill:#71117E;}
	.st79{fill:#75685E;}
	.st80{fill-rule:evenodd;clip-rule:evenodd;fill:#362B3C;}
	.st81{fill:#DADBD0;}
	.st82{fill:#0D8072;}
	.st83{fill:none;stroke:#FFFFFF;stroke-width:3;stroke-miterlimit:10;}
	.st84{fill:#40413B;}
	.st85{opacity:0.5;fill:none;stroke:#362B3C;stroke-miterlimit:10;}
	.st86{fill:#45D7B0;}
]]>
</style>
<g id="BG">
</g>
<g id="Layer_1">
</g>
<g id="Title">
</g>
<g id="Location">
</g>
<g id="Subtitle">
</g>
<g id="Desc">
	<g>
		<g class="st55">
			<path class="st74" d="M24,54C10.744,54,0,64.745,0,78c0,13.256,10.744,24,24,24s24-10.744,24-24C48,64.745,37.256,54,24,54z
				 M16.68,89.676h-5.346v-17.18h5.346V89.676z M14.008,70.148c-1.715,0-3.098-1.387-3.098-3.096s1.383-3.097,3.098-3.097
				c1.709,0,3.096,1.388,3.096,3.097S15.717,70.148,14.008,70.148z M36.678,89.676h-5.34v-8.354c0-1.992-0.033-4.556-2.773-4.556
				c-2.779,0-3.203,2.172-3.203,4.413v8.497h-5.332v-17.18h5.117v2.349h0.074c0.711-1.351,2.453-2.774,5.051-2.774
				c5.406,0,6.406,3.557,6.406,8.184V89.676z"/>
		</g>
		<g>
			<g>
				<path class="st69" d="M24,51C10.744,51,0,61.745,0,75c0,13.256,10.744,24,24,24s24-10.744,24-24C48,61.745,37.256,51,24,51z
					 M16.68,86.676h-5.346v-17.18h5.346V86.676z M14.008,67.148c-1.715,0-3.098-1.387-3.098-3.096s1.383-3.097,3.098-3.097
					c1.709,0,3.096,1.388,3.096,3.097S15.717,67.148,14.008,67.148z M36.678,86.676h-5.34v-8.354c0-1.992-0.033-4.556-2.773-4.556
					c-2.779,0-3.203,2.172-3.203,4.413v8.497h-5.332v-17.18h5.117v2.349h0.074c0.711-1.351,2.453-2.774,5.051-2.774
					c5.406,0,6.406,3.557,6.406,8.184V86.676z"/>
			</g>
		</g>
	</g>
	<rect id="_x3C_Slice_x3E_" class="st61" width="48" height="102"/>
	<g>
		<path class="st74" d="M24,47.35C11.125,47.35,0.65,36.875,0.65,24S11.125,0.65,24,0.65S47.35,11.125,47.35,24
			S36.875,47.35,24,47.35z M28.564,23.416c1.806,0,2.123,1.259,2.123,3.905v9.005h6.641V26.254c0-4.368-0.839-8.834-7.057-8.834
			c-1.954,0-3.461,0.743-4.475,1.665v-1.239h-6.418v18.48h6.633v-9.147C26.012,24.436,26.703,23.416,28.564,23.416z M10.684,36.326
			h6.646v-18.48h-6.646V36.326z M14.008,9.306c-2.066,0-3.748,1.681-3.748,3.747c0,2.065,1.682,3.746,3.748,3.746
			c2.065,0,3.746-1.681,3.746-3.746C17.754,10.986,16.073,9.306,14.008,9.306z"/>
		<path class="st69" d="M24,1.3c12.517,0,22.7,10.184,22.7,22.7S36.517,46.7,24,46.7S1.3,36.517,1.3,24S11.483,1.3,24,1.3
			 M12.538,17.196h-1.204h-1.3v1.3v17.18v1.3h1.3h5.346h1.3v-1.3v-17.18v-1.3h-1.3h-1.203c1.704-0.606,2.927-2.234,2.927-4.144
			c0-2.424-1.972-4.396-4.396-4.396c-2.425,0-4.397,1.973-4.397,4.396C9.61,14.962,10.834,16.59,12.538,17.196 M26.446,17.799
			v-0.603h-1.3h-5.117h-1.3v1.3v17.18v1.3h1.3h5.332h1.3v-1.3v-8.497c0-2.884,0.825-3.113,1.903-3.113
			c1.105,0,1.474,0.471,1.474,3.256v8.354v1.3h1.3h5.34h1.3v-1.3v-9.422c0-4.415-0.876-9.483-7.706-9.483
			C28.744,16.771,27.462,17.188,26.446,17.799 M24,0C10.744,0,0,10.745,0,24c0,13.256,10.744,24,24,24s24-10.744,24-24
			C48,10.745,37.256,0,24,0L24,0z M14.008,16.148c-1.715,0-3.098-1.387-3.098-3.096s1.383-3.097,3.098-3.097
			c1.709,0,3.096,1.388,3.096,3.097S15.717,16.148,14.008,16.148L14.008,16.148z M25.146,20.845h0.074
			c0.711-1.351,2.453-2.774,5.051-2.774c5.406,0,6.406,3.557,6.406,8.184v9.422h-5.34v-8.354c0-1.992-0.033-4.556-2.773-4.556
			c-2.779,0-3.203,2.172-3.203,4.413v8.497h-5.332v-17.18h5.117V20.845L25.146,20.845z M11.334,35.676v-17.18h5.346v17.18H11.334
			L11.334,35.676z"/>
	</g>
	<path class="st65" d="M47.949,25.5c-0.084,1.348-0.279,2.663-0.576,3.941c-0.317,1.369-0.747,2.695-1.287,3.965
		C42.427,41.985,33.917,48,24,48S5.572,41.985,1.914,33.405c-0.54-1.269-0.97-2.595-1.287-3.964
		C0.33,28.163,0.135,26.848,0.052,25.5C0.021,25.996,0,26.496,0,27c0,13.256,10.744,24,24,24s24-10.744,24-24
		C48,26.496,47.979,25.996,47.949,25.5z"/>
</g>
<g id="Layer_7">
</g>
</svg>

<svg xmlns="http://www.w3.org/2000/svg" width="48" height="102" viewBox="0 0 48 102"><defs><style>.a,.e{opacity:0.5;}.b,.e{fill:#0873b2;}.c{fill:#362b3c;}.d{fill:none;}.e{isolation:isolate;}</style></defs><title>soc_linkedin</title><g class="a"><path class="b" d="M24,54A24,24,0,1,0,48,78,24,24,0,0,0,24,54ZM16.68,89.676H11.334V72.5H16.68ZM14.008,70.148a3.1,3.1,0,1,1,3.1-3.1h0a3.1,3.1,0,0,1-3.09,3.1Zm22.67,19.528h-5.34V81.322c0-1.992-.033-4.556-2.773-4.556-2.779,0-3.2,2.172-3.2,4.413v8.5H20.03V72.5h5.117v2.349h.074a5.6,5.6,0,0,1,5.051-2.774c5.406,0,6.406,3.557,6.406,8.184Z"/></g><path class="c" d="M24,51A24,24,0,1,0,48,75,24,24,0,0,0,24,51ZM16.68,86.676H11.334V69.5H16.68ZM14.008,67.148a3.1,3.1,0,1,1,3.1-3.1h0a3.1,3.1,0,0,1-3.09,3.1Zm22.67,19.528h-5.34V78.322c0-1.992-.033-4.556-2.773-4.556-2.779,0-3.2,2.172-3.2,4.413v8.5H20.03V69.5h5.117v2.349h.074a5.6,5.6,0,0,1,5.051-2.774c5.406,0,6.406,3.557,6.406,8.184Z"/><rect class="d" width="48" height="102"/><path class="b" d="M24,47.35A23.35,23.35,0,1,1,47.35,24h0A23.377,23.377,0,0,1,24,47.35Zm4.564-23.934c1.806,0,2.123,1.259,2.123,3.905v9h6.641V26.254c0-4.368-.839-8.834-7.057-8.834A6.553,6.553,0,0,0,25.8,19.085V17.846H19.378v18.48h6.633V27.179C26.012,24.436,26.7,23.416,28.564,23.416Zm-17.88,12.91H17.33V17.846H10.684Zm3.324-27.02a3.747,3.747,0,1,0,3.746,3.748h0A3.752,3.752,0,0,0,14.008,9.306Z"/><path class="c" d="M24,1.3A22.7,22.7,0,1,1,1.3,24h0A22.726,22.726,0,0,1,24,1.3M12.538,17.2h-2.5V36.98H17.98V17.2h-2.5a4.4,4.4,0,1,0-2.939,0m13.908.6v-.6h-7.72V36.98h7.932v-9.8c0-2.884.825-3.113,1.9-3.113,1.1,0,1.474.471,1.474,3.256v9.654h7.94V26.254c0-4.415-.876-9.483-7.706-9.483A7.344,7.344,0,0,0,26.446,17.8M24,0A24,24,0,1,0,48,24,24,24,0,0,0,24,0ZM14.008,16.148a3.1,3.1,0,1,1,3.1-3.1h0a3.1,3.1,0,0,1-3.09,3.1Zm11.138,4.7h.074a5.6,5.6,0,0,1,5.051-2.774c5.406,0,6.406,3.557,6.406,8.184V35.68h-5.34V27.323c0-1.992-.033-4.556-2.773-4.556-2.779,0-3.2,2.172-3.2,4.413v8.5H20.029V18.5h5.117ZM11.334,35.676V18.5H16.68V35.68Z"/><path class="e" d="M47.949,25.5a23.994,23.994,0,0,1-47.9,0C.021,26,0,26.5,0,27a24,24,0,0,0,48,0C48,26.5,47.979,26,47.949,25.5Z"/></svg>
